X:107
T:Tripping to the Well
T:John McKenna's
R:polka
H:Also played in G, see #72
D:John McKenna & Eddie Meehan 1937 (Decca)
D:Begley & Cooney: Meitheal
Z:id:hn-polka-107
M:2/4
L:1/8
K:A
A>B cA|FA FE|A>B ce|cB Bc|A>B cA|FA FE|cA E/F/G/A/|1 BA AE:|2 BA A>c||
|:ec A>B|cA FE|ec A>B|cB Bc|ec A>B|cA FE|cA E/F/G/A/|1 BA A>c:|2 BA AE||

